build/img/general/logo-mob.svg

<svg width="95" height="48" viewBox="0 0 95 48" fill="none" xmlns="http://www.w3.org/2000/svg">
<g clip-path="url(#clip0)">
<path fill-rule="evenodd" clip-rule="evenodd" d="M15.1855 28.5818C15.1954 28.1959 15.1206 27.8124 14.9663 27.4582C14.8316 27.158 14.6305 26.892 14.378 26.68C14.1321 26.4757 13.8476 26.3224 13.5413 26.2291C13.2263 26.1337 12.8986 26.0859 12.5694 26.0873C12.1549 26.1014 11.7475 26.1978 11.3711 26.3708C10.9946 26.5437 10.6566 26.7898 10.377 27.0946L3.24474 34.0691V26.32H0.588392V33.92C0.587352 34.3017 0.6478 34.681 0.767433 35.0437C0.876148 35.3842 1.04846 35.7013 1.27532 35.9782C1.49765 36.2435 1.77579 36.457 2.09012 36.6037C2.43333 36.7621 2.80797 36.8416 3.18628 36.8364C3.58488 36.8368 3.97925 36.7551 4.34455 36.5964C4.74463 36.4156 5.10194 36.1529 5.3932 35.8255L12.5255 28.9164V36.6982H15.1672V28.5818H15.1855ZM19.2267 26.2837H16.5849V36.68H19.2267V32.7528H28.8801V36.6909H31.5255V26.2837H28.8838V30.0982H19.2267V26.2837ZM45.3919 32.7709H35.6726V34.08H45.3919V32.7709ZM45.2676 28.8618H35.669V30.0728H45.2676V28.8618ZM32.9469 26.2473H44.2738C44.709 26.2421 45.144 26.2713 45.5746 26.3346C45.9046 26.3834 46.225 26.4828 46.5245 26.6291C46.7841 26.7582 47.0161 26.936 47.2078 27.1528C47.4101 27.3881 47.5831 27.647 47.723 27.9237C47.9657 28.4066 48.0897 28.94 48.0846 29.4799C48.0795 30.0198 47.9455 30.5508 47.6938 31.0291L47.639 31.1382C47.6191 31.1765 47.5959 31.213 47.5695 31.2473L47.5294 31.3164L47.4892 31.4109L47.5586 31.52L47.6828 31.7091C47.7194 31.7721 47.751 31.8315 47.7778 31.8873C47.8097 31.9494 47.8463 32.009 47.8874 32.0655C48.1328 32.5122 48.2669 33.011 48.2784 33.52C48.2864 34.003 48.1734 34.4804 47.9496 34.9091C47.7088 35.3487 47.3639 35.7232 46.9447 36C46.451 36.3271 45.8885 36.5374 45.3005 36.6146C45.1142 36.6419 44.9261 36.6552 44.7378 36.6546H32.9359V26.2182L32.9469 26.2473ZM49.5828 29.5855V29.4437C49.5785 29.3916 49.5785 29.3393 49.5828 29.2873C49.6008 28.9221 49.6824 28.5628 49.824 28.2255C49.9735 27.9007 50.1802 27.6052 50.4342 27.3528C50.5072 27.28 50.5803 27.2121 50.6534 27.1491L50.8872 26.9455C51.1631 26.7225 51.4759 26.549 51.8117 26.4328C52.2139 26.3142 52.6308 26.2517 53.0503 26.2473H64.4686V28.8618H52.3013V30.1273H64.4722V32.8291L52.3013 32.8582V34.0837H64.4722V36.6873H53.3024C52.7906 36.7014 52.2805 36.6225 51.7971 36.4546C51.3888 36.2914 51.0165 36.0505 50.7009 35.7455C50.3453 35.4125 50.0532 35.0183 49.8386 34.5818C49.6716 34.1975 49.5882 33.7824 49.5938 33.3637V29.5928L49.5828 29.5855ZM65.2724 26.2473H80.1692V28.8618H74.0855V36.6837H71.3524V28.8691H65.2688V26.2546L65.2724 26.2473ZM87.6705 28.9055L86.399 31.1673H88.9165L87.6705 28.9055ZM84.6853 28.7709L85.1092 27.9273C85.1449 27.8829 85.1767 27.8354 85.2042 27.7855L85.2846 27.6437C85.5439 27.2139 85.8779 26.8334 86.2711 26.52C86.5681 26.2979 86.9095 26.1417 87.2722 26.0618C87.7709 25.9644 88.2881 26.0442 88.7338 26.2873C89.2613 26.6308 89.6975 27.0961 90.0053 27.6437C90.0419 27.7067 90.0784 27.7661 90.1149 27.8218C90.1515 27.8776 90.188 27.937 90.2245 28L90.663 28.8328L95.0476 36.6946H91.9674L90.4219 33.8328H84.9411L83.4065 36.6946H80.2971L84.6853 28.7709Z" fill="#404040"/>
<path fill-rule="evenodd" clip-rule="evenodd" d="M4.79395 46.5237H3.8403V40.8109H0.263184V40.0219H8.36376V40.8109H4.7903V46.5237H4.79395ZM16.8261 42.5455C16.835 42.2182 16.7635 41.8936 16.6178 41.6C16.481 41.3398 16.2683 41.1268 16.0076 40.9891C15.7176 40.8403 15.3947 40.7665 15.0686 40.7746H12.0761C11.7694 40.7677 11.4665 40.8431 11.1991 40.9928C10.9461 41.1378 10.7406 41.3525 10.6072 41.6109C10.4609 41.8992 10.3881 42.2189 10.3953 42.5418L16.8261 42.5455ZM10.3953 43.3346V43.9637C10.3953 45.1612 11.0043 45.7588 12.2222 45.7564H15.3316C15.7376 45.7861 16.1401 45.6643 16.4607 45.4146C16.5796 45.3089 16.6739 45.1786 16.737 45.0329C16.8001 44.8872 16.8305 44.7295 16.8261 44.5709V44.44H17.7797V44.5709C17.7774 44.8894 17.7011 45.203 17.5568 45.4873C17.3945 45.8063 17.14 46.0697 16.8261 46.2437C16.4084 46.4642 15.9392 46.5697 15.4668 46.5491H12.2624C11.3173 46.5491 10.6133 46.3431 10.1505 45.9309C9.91004 45.6955 9.72353 45.4112 9.60371 45.0974C9.48389 44.7836 9.4336 44.4477 9.45626 44.1128V42.4C9.45741 41.9896 9.57111 41.5873 9.78511 41.2364C10.0164 40.8557 10.349 40.5461 10.7461 40.3419C11.2053 40.106 11.7166 39.9885 12.2332 40H14.9845C15.7349 39.9514 16.4761 40.1865 17.0599 40.6582C17.2938 40.861 17.4804 41.1122 17.6066 41.3942C17.7329 41.6762 17.7957 41.9822 17.7907 42.2909V43.3455L10.3953 43.3346ZM20.1328 46.5237H19.1755V40.0182H27.4113V46.5237H26.4576V40.8109H20.1291V46.5237H20.1328ZM36.5751 40.8109H31.0943V44.0837C31.0943 45.6982 30.3088 46.5055 28.7376 46.5055H28.4599V45.7164H28.7376C28.933 45.732 29.1294 45.7042 29.3126 45.6351C29.4959 45.5659 29.6614 45.457 29.7972 45.3164C30.0568 44.9489 30.1783 44.5022 30.1407 44.0546V40.0182H37.5142V46.5237H36.5605V40.8109H36.5751ZM47.1238 44.0837C47.1326 43.8714 47.0917 43.66 47.0042 43.4662C46.9166 43.2724 46.785 43.1016 46.6195 42.9673C46.17 42.6604 45.6285 42.5154 45.0849 42.5564H39.9841V40.0291H39.0086V46.5346H44.9095C46.3711 46.5346 47.1018 45.9819 47.1018 44.8764V44.0873L47.1238 44.0837ZM40.0024 43.3564H44.7524C45.1453 43.3167 45.5412 43.3952 45.8888 43.5819C45.9917 43.6715 46.0719 43.7841 46.1227 43.9105C46.1735 44.0369 46.1935 44.1735 46.1811 44.3091V44.7818C46.1904 44.9188 46.1672 45.0561 46.1132 45.1825C46.0593 45.3088 45.9761 45.4208 45.8705 45.5091C45.5295 45.7072 45.1345 45.7937 44.7415 45.7564H39.9841V43.3382L40.0024 43.3564ZM48.5816 46.5455V40.0182H49.5353V46.5237L48.5816 46.5455ZM51.0918 46.5455V40.0182H52.0455V45.7891H52.3524L57.7418 40.0182H59.2947V46.5237H58.3411V40.7564H58.078L52.7178 46.5237L51.0918 46.5455ZM54.9759 38.7891H55.0965C55.4828 38.8011 55.8692 38.767 56.2474 38.6873C56.4575 38.6515 56.6458 38.537 56.7736 38.3673C56.8739 38.1824 56.9207 37.9735 56.9088 37.7637H57.6724C57.6872 38.1087 57.6209 38.4523 57.4788 38.7673C57.3068 39.0545 57.0288 39.2633 56.7041 39.3491C56.1546 39.5054 55.5836 39.5742 55.0124 39.5528C54.4557 39.5743 53.8991 39.5055 53.3645 39.3491C53.0408 39.2593 52.7638 39.0499 52.5899 38.7637C52.4457 38.4505 52.3781 38.1078 52.3926 37.7637H53.1636C53.1525 37.9722 53.1992 38.1798 53.2988 38.3637C53.4301 38.5175 53.6133 38.6183 53.814 38.6473C54.1933 38.7271 54.581 38.7613 54.9686 38.7491L54.9759 38.7891ZM65.393 45.7564C66.0629 45.3879 66.3978 44.5576 66.3978 43.2655V40.04H73.6178V45.7528H74.3851V49.0255H73.4716V46.5491H65.7986V49.0255H64.8851V45.7528L65.393 45.7564ZM72.7007 45.7564V40.8109H67.3332V43.1309C67.3332 44.5103 67.0555 45.3794 66.5001 45.7382L72.7007 45.7564ZM75.3863 42.5673C75.3743 42.2249 75.4304 41.8835 75.5514 41.5627C75.6724 41.2419 75.856 40.9482 76.0915 40.6982C76.547 40.24 77.2656 40.0109 78.2472 40.0109H80.867C81.4414 39.987 82.0128 40.1057 82.5295 40.3564C82.9246 40.5556 83.2439 40.8772 83.4393 41.2728C83.6269 41.6803 83.7253 42.1228 83.728 42.5709V43.9928C83.7252 44.4452 83.6243 44.8918 83.432 45.3018C83.2312 45.7 82.9089 46.0246 82.5113 46.2291C82.0035 46.4849 81.4395 46.6099 80.8707 46.5928H78.2509C76.3704 46.5928 75.4179 45.7309 75.3936 44.0073C75.3936 43.9018 75.3936 43.7746 75.3936 43.6218C75.3936 43.4691 75.3936 43.36 75.3936 43.2982C75.3936 43.2364 75.3936 43.1273 75.3936 42.9746C75.3936 42.8218 75.3936 42.6909 75.3936 42.5891L75.3863 42.5673ZM76.3399 43.9891C76.3399 45.1843 76.9964 45.7818 78.3093 45.7818H80.7976C82.1154 45.7818 82.7731 45.1843 82.7707 43.9891V42.5673C82.7861 42.3255 82.7487 42.0833 82.661 41.8573C82.5733 41.6313 82.4375 41.4269 82.2628 41.2582C81.8506 40.9285 81.3289 40.7649 80.8013 40.8H78.313C77.9393 40.7862 77.5666 40.8467 77.2168 40.9782C76.9414 41.0899 76.7122 41.2911 76.5665 41.5491C76.4081 41.865 76.3291 42.2144 76.3363 42.5673V43.9891H76.3399ZM95.0403 40.04H93.2755L89.9578 45.5564L86.6693 40.0146H84.9447V46.52H85.8984V40.7564H86.1907L89.6582 46.5273H90.294L93.7615 40.7564H94.0538V46.5273H95.0074L95.0403 40.04Z" fill="#FF8500"/>
<path fill-rule="evenodd" clip-rule="evenodd" d="M49.0236 7.01089C48.6801 6.78907 48.6143 7.25452 48.6582 5.47634C48.6907 4.90019 48.6736 4.32232 48.607 3.74907L37.4226 2.72361C37.8866 3.45088 40.1776 4.77452 40.912 5.26907C42.1397 6.13088 50.9345 12.1345 51.5593 12.4327C54.8843 10.8691 52.038 10.7636 57.917 10.2L59.9632 10.0072C60.5405 10.0727 60.2299 9.88725 60.4784 10.3127L59.5284 10.5563C59.2141 10.5963 58.8889 10.6109 58.5747 10.6363C53.8759 11.0327 54.8368 10.8618 50.3901 13.8254L47.7045 15.7382C50.2951 15.9091 56.5322 17.3745 59.3968 18.1563C61.0849 18.6145 61.4174 17.7927 62.6122 17.0363C63.5622 16.4254 73.1243 10.0109 73.9391 9.29088C71.8747 9.29088 64.5488 10.0182 63.913 10.3272C63.913 11.0145 64.2162 13 63.6536 13.3127C63.0434 13.0327 63.3503 7.01452 63.3649 6.12361C62.4003 6.56725 61.6293 7.26543 60.7634 7.7927C60.0326 7.54907 57.8878 6.0727 57.2045 5.61088C55.2461 4.29088 54.318 5.15998 52.2791 4.57816L52.1841 1.74907C51.5703 1.29089 50.1599 0.105434 49.3926 -0.123657L49.4218 6.21452C49.3013 7.31998 49.5497 6.69089 49.0236 7.01089Z" fill="#404040"/>
<path fill-rule="evenodd" clip-rule="evenodd" d="M7.77539 22.1018C7.81924 22.1018 13.7385 20.2036 17.1329 19.6327C28.9969 17.6327 39.2423 19.0473 50.8067 20.8218C59.2398 22.1127 73.636 26.6691 82.6391 24.3818C84.2906 23.96 85.8654 23.2254 86.5304 22.1563C87.5279 20.5491 87.2246 18.8218 86.2271 17.48C86.5194 19.4582 86.8556 20.8472 85.204 21.9163C81.9777 24.0109 72.4887 21.9454 69.1673 21.2218C62.4187 19.7672 55.9879 17.5854 49.0273 16.6036C35.636 14.7127 21.85 14.3818 9.62424 20.9272C9.07981 21.2218 8.0677 21.9782 7.77539 22.1018Z" fill="url(#paint0_linear)"/>
<path fill-rule="evenodd" clip-rule="evenodd" d="M24.7949 9.28726C25.4672 10.0145 28.3428 11.7491 29.3659 12.4691C30.1953 13.0509 30.8457 13.4472 31.7263 14.0654C33.1695 15.0836 33.1476 14.6836 35.1134 14.7091C40.5028 14.7745 41.6063 15.1163 46.1955 15.52C47.3282 15.6182 48.0845 14.7527 48.8482 14.3163C48.3476 13.7018 46.5499 12.7018 45.7497 12.1527C44.4124 11.24 44.0215 10.7273 41.8365 10.8836C41.8803 13.8218 42.1032 13.7927 41.2555 13.8618C40.7768 13.2036 41.113 7.79635 41.0216 6.61453C37.9378 8.61453 38.2593 8.27999 38.263 10.4582L32.3547 9.75998C32.943 9.47998 36.4142 6.56725 37.1815 5.91998C37.4993 5.65453 37.6565 5.55634 37.9999 5.30544C38.5188 4.89816 38.5882 4.85453 38.8074 4.32725C38.0766 4.08362 38.1534 3.88362 37.4628 3.64362L30.9699 8.90907C29.2782 10.4036 28.3245 9.38544 24.7949 9.28726Z" fill="#404040"/>
<path fill-rule="evenodd" clip-rule="evenodd" d="M72.3792 11.0545C72.8395 11.6254 74.2061 12.6036 74.893 13.1673L80.1692 17.4436C81.8499 18.8109 81.1995 18.6291 83.9545 18.6363C83.6366 18.0254 77.5457 13.2363 76.2449 12.1782C75.5142 11.5891 74.3486 10.4545 73.5886 10.1964C73.1793 10.5091 72.7774 10.7127 72.3792 11.0545Z" fill="#404040"/>
<path fill-rule="evenodd" clip-rule="evenodd" d="M16.2012 17.3055C16.8771 17.2582 18.5762 16.7164 19.2814 16.5237C20.3373 16.2364 24.4698 12.7164 25.745 11.6182L26.3041 11.0509L25.0216 10.1309L18.4264 15.4764C17.9441 15.8837 17.7248 16.0218 17.3302 16.3564C16.9356 16.6909 16.6104 17.0146 16.2012 17.3055Z" fill="#404040"/>
</g>
<defs>
<linearGradient id="paint0_linear" x1="25.4454" y1="-4.74183" x2="70.8778" y2="47.4305" gradientUnits="userSpaceOnUse">
<stop stop-color="#E30613"/>
<stop offset="0.25" stop-color="#EF7D00"/>
<stop offset="0.36" stop-color="#FFED00"/>
<stop offset="0.49" stop-color="#009640"/>
<stop offset="0.59" stop-color="#009FE3"/>
<stop offset="0.7" stop-color="#312783"/>
<stop offset="1" stop-color="#AD4582"/>
</linearGradient>
<clipPath id="clip0">
<rect width="95" height="48" fill="white"/>
</clipPath>
</defs>
</svg>

<svg width="95" height="48" fill="none" xmlns="http://www.w3.org/2000/svg"><g clip-path="url(#clip0)" fill-rule="evenodd" clip-rule="evenodd"><path d="M15.185 28.582c.01-.386-.064-.77-.219-1.124a2.183 2.183 0 00-.588-.778 2.407 2.407 0 00-.837-.45 3.305 3.305 0 00-.972-.143 3.124 3.124 0 00-2.192 1.008l-7.132 6.974V26.32H.588v7.6c0 .382.06.761.18 1.124.108.34.28.657.507.934.223.265.5.479.815.626.343.158.718.238 1.096.232a2.9 2.9 0 001.159-.24c.4-.18.757-.443 1.048-.77l7.132-6.91v7.782h2.642v-8.116h.018zm4.042-2.298h-2.642V36.68h2.642v-3.927h9.653v3.938h2.646V26.284h-2.642v3.814h-9.657v-3.814zm26.165 6.487h-9.72v1.309h9.72v-1.31zm-.124-3.91h-9.599v1.212h9.599v-1.211zm-12.321-2.614h11.327c.435-.005.87.024 1.3.088.33.048.651.148.95.294.26.13.492.307.684.524.202.235.375.494.515.77a3.394 3.394 0 01-.03 3.106l-.054.11a.732.732 0 01-.07.108l-.04.07-.04.094.07.109.124.19c.036.062.068.121.095.177.032.062.068.122.11.178.245.447.379.946.39 1.455.008.483-.105.96-.328 1.39A3.09 3.09 0 0146.945 36a3.895 3.895 0 01-1.645.615c-.186.027-.374.04-.562.04H32.936V26.218l.01.03zm16.636 3.338v-.141a.95.95 0 010-.157c.018-.365.1-.724.241-1.061.15-.325.356-.62.61-.873.073-.073.146-.14.22-.204l.233-.204a3.06 3.06 0 01.925-.512 4.554 4.554 0 011.238-.186h11.42v2.615H52.3v1.265h12.171v2.702l-12.17.03v1.225h12.17v2.603h-11.17a4.233 4.233 0 01-1.505-.232 3.386 3.386 0 01-1.096-.71 4.03 4.03 0 01-.862-1.163 2.97 2.97 0 01-.245-1.218v-3.771l-.011-.008zm15.69-3.338h14.896v2.615h-6.084v7.822h-2.733v-7.815H65.27v-2.614l.003-.008zm22.398 2.659l-1.272 2.261h2.517l-1.245-2.262zm-2.986-.135l.424-.844a.985.985 0 00.095-.142l.08-.141c.26-.43.594-.81.987-1.124a2.609 2.609 0 011.001-.458 2.18 2.18 0 011.462.225c.527.344.964.81 1.271 1.357.037.063.073.122.11.178.037.056.073.115.11.178l.438.833 4.385 7.862h-3.08l-1.546-2.862h-5.48l-1.535 2.862h-3.11l4.388-7.924z" fill="#404040"/><path d="M4.794 46.524H3.84V40.81H.263v-.79h8.1v.79H4.79v5.713h.004zm12.032-3.979a2.004 2.004 0 00-.208-.945 1.459 1.459 0 00-.61-.61 1.951 1.951 0 00-.94-.215h-2.992a1.716 1.716 0 00-.877.218c-.253.145-.458.36-.592.618a1.96 1.96 0 00-.212.93l6.431.005zm-6.43.79v.629c0 1.197.608 1.795 1.826 1.792h3.11c.406.03.808-.092 1.129-.341a1.09 1.09 0 00.365-.844v-.131h.954v.13a2.057 2.057 0 01-.223.917 1.797 1.797 0 01-.73.757 2.67 2.67 0 01-1.36.305h-3.205c-.945 0-1.649-.206-2.112-.618a2.33 2.33 0 01-.694-1.818V42.4a2.24 2.24 0 01.33-1.164c.23-.38.563-.69.96-.894.46-.236.97-.353 1.487-.342h2.752a2.995 2.995 0 012.075.658 2.121 2.121 0 01.73 1.633v1.055l-7.395-.011zm9.737 3.189h-.957v-6.506h8.235v6.506h-.953V40.81h-6.329v5.713h.004zm16.442-5.713h-5.48v3.273c0 1.614-.786 2.421-2.357 2.421h-.278v-.789h.278a1.33 1.33 0 001.06-.4 1.91 1.91 0 00.343-1.261v-4.037h7.373v6.506h-.954V40.81h.015zm10.549 3.273a1.363 1.363 0 00-.505-1.117 2.402 2.402 0 00-1.534-.41h-5.1v-2.528h-.976v6.506h5.9c1.462 0 2.193-.553 2.193-1.659v-.789l.022-.003zm-7.122-.728h4.75c.393-.04.79.04 1.137.226a.862.862 0 01.292.727v.473a.87.87 0 01-.31.727 1.892 1.892 0 01-1.13.247h-4.757v-2.418l.018.018zm8.58 3.19v-6.528h.953v6.506l-.953.021zm2.51 0v-6.528h.953v5.771h.307l5.39-5.77h1.553v6.505h-.954v-5.768h-.263l-5.36 5.768-1.626.021zm3.884-7.757h.12c.387.012.773-.022 1.151-.102a.834.834 0 00.527-.32c.1-.185.147-.393.135-.603h.763a2.21 2.21 0 01-.193 1.003c-.172.287-.45.496-.775.582a5.44 5.44 0 01-1.692.204 5.16 5.16 0 01-1.648-.204c-.323-.09-.6-.3-.774-.585a2.172 2.172 0 01-.197-1h.77c-.01.208.036.416.136.6a.834.834 0 00.515.283c.38.08.767.114 1.155.102l.007.04zm10.417 6.967c.67-.368 1.005-1.198 1.005-2.49V40.04h7.22v5.713h.767v3.273h-.913v-2.477h-7.673v2.477h-.914v-3.273l.508.003zm7.308 0v-4.945h-5.368v2.32c0 1.38-.278 2.248-.833 2.607l6.2.018zm2.685-3.189a2.59 2.59 0 01.706-1.869c.455-.458 1.174-.687 2.155-.687h2.62a3.478 3.478 0 011.662.345c.396.2.715.521.91.917.188.407.286.85.289 1.298v1.422a3.128 3.128 0 01-.296 1.309c-.2.398-.523.723-.92.927a3.419 3.419 0 01-1.641.364h-2.62c-1.88 0-2.833-.862-2.857-2.586v-1.418l-.008-.022zm.954 1.422c0 1.195.656 1.793 1.97 1.793h2.488c1.317 0 1.975-.598 1.973-1.793v-1.422a1.669 1.669 0 00-.508-1.309A2.116 2.116 0 0080.8 40.8h-2.488a2.82 2.82 0 00-1.096.178 1.313 1.313 0 00-.65.571 2.173 2.173 0 00-.23 1.018v1.422h.003zm18.7-3.949h-1.765l-3.317 5.516-3.289-5.541h-1.724v6.505h.953v-5.764h.293l3.467 5.771h.636l3.468-5.77h.292v5.77h.953l.033-6.487z" fill="#FF8500"/><path d="M49.024 7.01c-.344-.22-.41.245-.366-1.534a9.965 9.965 0 00-.051-1.727L37.423 2.724c.464.727 2.755 2.05 3.489 2.545 1.228.862 10.023 6.865 10.647 7.164 3.325-1.564.479-1.67 6.358-2.233l2.046-.193c.578.066.267-.12.515.306l-.95.243c-.314.04-.64.055-.953.08-4.7.397-3.738.226-8.185 3.19l-2.685 1.912c2.59.171 8.827 1.637 11.692 2.418 1.688.459 2.02-.363 3.215-1.12.95-.61 10.512-7.025 11.327-7.745-2.064 0-9.39.727-10.026 1.036 0 .688.303 2.673-.26 2.986-.61-.28-.303-6.298-.288-7.19-.965.444-1.736 1.142-2.602 1.67-.73-.244-2.875-1.72-3.558-2.182-1.959-1.32-2.887-.451-4.926-1.033l-.095-2.829C51.57 1.291 50.16.105 49.393-.124l.029 6.339c-.12 1.105.128.476-.398.796z" fill="#404040"/><path d="M7.775 22.102c.044 0 5.963-1.898 9.358-2.47 11.864-2 22.11-.585 33.674 1.19 8.433 1.29 22.829 5.847 31.832 3.56 1.652-.422 3.226-1.157 3.891-2.226.998-1.607.695-3.334-.303-4.676.292 1.978.629 3.367-1.023 4.436-3.226 2.095-12.715.03-16.037-.694-6.748-1.455-13.18-3.637-20.14-4.618-13.391-1.891-27.177-2.222-39.403 4.323-.544.295-1.556 1.051-1.849 1.175z" fill="url(#paint0_linear)"/><path d="M24.795 9.287c.672.727 3.548 2.462 4.57 3.182.83.582 1.48.978 2.361 1.596 1.444 1.019 1.422.619 3.387.644 5.39.066 6.493.407 11.083.811 1.132.098 1.889-.767 2.652-1.204-.5-.614-2.298-1.614-3.098-2.163-1.338-.913-1.728-1.426-3.913-1.27.043 2.939.266 2.91-.582 2.979-.478-.658-.142-6.066-.233-7.247-3.084 2-2.763 1.665-2.759 3.843l-5.908-.698c.588-.28 4.06-3.193 4.827-3.84.317-.265.474-.364.818-.615.519-.407.588-.45.807-.978-.73-.243-.654-.443-1.344-.683L30.97 8.909c-1.692 1.495-2.645.476-6.175.378zm47.585 1.768c.46.57 1.826 1.549 2.513 2.112l5.276 4.277c1.68 1.367 1.03 1.185 3.785 1.192-.317-.61-6.408-5.4-7.71-6.458-.73-.589-1.895-1.724-2.655-1.982-.41.313-.812.517-1.21.859zm-56.179 6.25c.676-.047 2.375-.589 3.08-.781 1.056-.288 5.189-3.808 6.464-4.906l.56-.567-1.283-.92-6.596 5.345c-.482.408-.701.546-1.096.88-.394.335-.72.659-1.129.95z" fill="#404040"/></g><defs><linearGradient id="paint0_linear" x1="25.445" y1="-4.742" x2="70.878" y2="47.431" gradientUnits="userSpaceOnUse"><stop stop-color="#E30613"/><stop offset=".25" stop-color="#EF7D00"/><stop offset=".36" stop-color="#FFED00"/><stop offset=".49" stop-color="#009640"/><stop offset=".59" stop-color="#009FE3"/><stop offset=".7" stop-color="#312783"/><stop offset="1" stop-color="#AD4582"/></linearGradient><clipPath id="clip0"><path fill="#fff" d="M0 0h95v48H0z"/></clipPath></defs></svg>
